X: 934
T: Gülistan-ı Nakş-ı
C: Zaharya
O: Turkey
F: http://compmusic.upf.edu/node/140
N: saba--beste--devrikebir--gulistan-i_naks-i--zaharya
N: makam= saba
N: form= beste
N: usul= devrikebir = 28/4
M: 28/4
L: 1/16
K: C _2/4B _3/4d  
Q: 1/4=72
%%MIDI tuningsystem comma53
z2c4_7/8d2 c2c_1/4B A2B2  | c_7/8dc_1/4B c2d2 z2c4cB  | \
w:   |   | 
_1/4B3A A4 A4 _7/8dcBA  | 
w:   | 
G2A2 G4 A8  | _1/4B2c2 B2c2 z2A4e2  | \
w:   |   | 
_7/8d2c4d2 dc_1/4BA B2c2  | _1/4B4 c8 z4  | 
w:   |   | 
=d6e2 e8  | fefg fe_7/8d2 z2cd c2d2  | \
w:   |   | 
_7/8d2e2 d2c_1/4B c2d2 d2c2  | 
w:   | 
c2_7/8d2 c_1/4Bc2 d2c4c2  | _7/8d2e2 fgfe d2z2 cdc2  | \
w:   |   | 
_7/8ded2 c4 d2dc _1/4BAB2  | 
w:   | 
c2_1/4B4c8z4c2 e=dd4z2 c_1/4dc2  | \
w:   | 
_1/4ded2 e2_7/8d2 c2z2 _1/4BcB2  | 
w:   | 
c_7/8dc2 d2c2 _1/4B2c2 d2cB  | A4 _1/4BABc B4 c_7/8dcB  | \
w:   |   | 
c2_7/8d2 d2c4c_1/4B B2c2  | 
w:   | 
_1/4BAA4A4c2 BAG2  | A2G4=d3efe dcd8z4d2 e2d2  | 
w:   |   | 
^c2e2 =d2c2 _7/8B2A2 e2d2  | z2^c4=d2 c_7/8BB2 =c2BA  | \
w:   |   | 
A4 A4 _7/8B3A ^G2A2  | 
w:   | 
^G4 A2_7/8B2 A4 B2^c2  | _7/8B4 z2=d4e2 e2de  | \
w:   |   | 
=d2^c2 _7/8B2c2 d2ef e2d2  | 
w:   | 
^c2e=d d6z2 z4  | ^c2=d2 e8 e2^f2  | \
w:   |   | 
=d6z2 e2^f2 g3f  | a3g g3^f f2e2 e3_7/8d  | 
w:   |   | 
_7/8d3c c3_1/4B c2Bc _1/4d2cd  | e4 z2c4_7/8d2 d2c4_1/4B2 dcBA B2c2 B4  | 
w:   |   | 
c8 z4 c2e=d  | =d4 z2c_1/4d c2de d2e2  | \
w:   |   | 
_7/8d2c2 z2_1/4Bc B2cd c2d2  | 
w:   | 
c2_1/4B2 c2_7/8d2 cBA4BA  | _1/4BcB4c_7/8d cBc2 d2d2  | \
w:   |   | 
c4 c_1/4BB2 c2BA A4  | 
w:   | 
A4 c2_1/4BA G2A2 G4  | A3_1/4B c2=dB A8  | |


